X:1
T:Sinfonia Funebre
T:Sinfonia Funebre
T:Lamento
T:Pietro Antonio Locatelli
T:DunL 2.2
C:P. A. Locatelli
Z:DunL 2.2
%%score [ 1 2 ( 3 4 ) 5 ]
L:1/8
Q:1/4=60
M:4/4
K:Ab
V:1 treble nm="Violino I"
V:2 treble nm="Violino II"
V:3 alto nm="Viola"
V:4 alto 
V:5 bass nm="Basso"
V:1
"^Largo""_sostenuto" f8 | =e8 | f8 | _g8 | f8 | =B8 | c8- | c4 B4- | B4 A4- | A4 G4- | G4 F4- | %11
 F4 E4- | E4 D4 | =B8 | c8 | =A8- | A4 B4 | !fermata!=e4 z2 z c | a4 =e4 | f4 =B4 | c8 |] %21
[M:2/2][Q:1/4=200]"^Alla breve ma moderato" z4 c4 | d6 B2 | =e6 c2 | f6 a2 | g2 (B2 A2) f2 | %26
 GA B4 AG | F4 z4 | z8 | z2 a2 g2 f2 | e2 e2 =d2 c2 | =B4 c4- | c4 =B4 | c2 =d2 e2 c2 | %34
 fe_dc B2 d2 | G4 =e4 | f4 c4 | B2 (g2 f2) A2 | Bc d4 cB | A8 | G2 d2 c2 B2 | A2 c2 B2 A2 | %42
 G2 d2 c2 B2 | A2 B2 A2 G2 | A2 c2 B2 A2 | G2 B2 A2 G2 | F2 c2 B2 A2 | G2 A2 G2 F2 | E2 B2 A2 G2 | %49
 F8- | F2 (A2 G2 F2) | E2 (G2 F2 E2) | =D2 (F2 E2 D2) | C2 (a2 g2) c'2 | c4 =B4 | c4 z4 | %56
 E2 (_G2 F2 E2) | D2 (F2 E2 D2) | C2 (E2 D2 C2) | B,2 (_g2 f2) b2 | B4 =A4 | B4 z4 | z2 _g2 f2 e2 | %63
 d2 d2 c2 B2 | =A4 B4- | B4 =A4 | B2 c2 d2 e2 | fedc B2 d2 | G4 =e4 | F4 z4 | z8 | z8 | z4 f4 | %73
 a6 f2 | =b6 g2 | c'6 e'2 | =d'2 (f2 e2) c'2 | =de f4 ed | c8- | c2 f2- fe_dc | d8- | d2 e2- edcB | %82
 c8- | c2 d2- dcBA | B8- | B2 c2- cBAG | A4 A4 | G4 =e4 | f8 |!p! G8 | A8 |!f! =a8 | b8 |!p! =A8 | %94
 B8 |!f! =b8 | c'8 |!p! =B8 | c8 | z8 | z2!f! d2 c2 B2 | A2 A2 G2 F2 | =E4 g4 | a6 f2 | =b6 g2 | %105
 c'4 c4- | c4 B4- | B2 B4 AG | A8- | A8 | _G8 | F8 ||[Q:1/4=160]"^Adagio" z4 A4 | A8 | =G8 | F16 |] %116
[K:Ab][M:3/4][Q:1/4=50]"^Grave" (d<A)(f<d)(a<f) | (ba) a2 f2 | (._g2 .g2 .g2) | !fermata!f6 | %120
 (d<B)(f<d)(b<f) | (_gf) f2 B2 | (.e2 .e2 .e2) | !fermata!d6 | (d<B)(g<d)(b<d) | (.c2 .c2 .c2) | %126
 (c<A)(f<c)(a<c) | (.B2 .B2 .B2) | (B<G)(=e<B)(g<B) | (.A2 .A2 .A2) | (A<F)(d<A)(f<A) | %131
 (.G2 .G2 .G2) | (.A2 .A2 .A2) | (.c2 .c2 .c2) | (.d2 .d2 .d2) | (.f2 .f2 .f2) | _g6- | g6 | %138
 (f2 e2 d2 | c2 B2 A2) | _G6 | !fermata!A6 | c2 c2 c2 | (d<A)(f<d)(a<f) | (d<B)(f<d)(b<f) | %145
 db a2 c2 | !fermata!d6 |!p! =e2 e2 e2 | f2 f2 f2 | f2 f2 f2 | (f2 =e2) z2 |!pp! A2 A2 A2 | %152
 (A2 G2) z2 |][K:Ab][M:4/4][Q:1/4=240]"^Non presto"!f! f2 | (_g2 f2 =e2 f2) | (.a2 .=g2) z2 f2 | %156
 (_g2 f2 =e2 f2) | (.B2 .A2) z2 f2 | (_g2 f2 =e2 f2) | (d2 c2) (f2 e2) | (d2 c2) (f2 e2) | %161
 d2 g4 b2- | b2 g4 d2- | d2 B4 G2 | E2 d4 cB | c2 e2 e2 e2 | G2 e2 e2 e2 | A2 e2 e2 e2 | E4 z2 d2 | %169
 (c2 B2 A2 G2) | A4 f4 | (c2 B2 A2 G2) | A4 f4 | (e<=B)(c<=A) (_B<d)(G<B) | _A6 f2 | %175
 (e<=B)(c<=A) (_B<d)(G<B) | _A4 =e4 | f4 =B4 | c6 :| c2 | d2 c2 B2 c2 | =A2 B2 z2 f2 | %182
 _g2 f2 e2 d2 | c2 B2 z2 B2 | _c2 B2 =A2 B2 | G2 _A2 z2 e2 | f2 e2 d2 c2 | B2 A2 z2 c2 | %188
 =B2 c2 e2 =d2 | =B2 c2 e2 =d2 | a2 g2 a2 g2 | a2 g2 z2 =d2 | e2 g2 g2 g2 | =B2 g2 g2 g2 | %194
 c2 g2 g2 g2 | G4 z2 f2 | e2 =d2 c2 =B2 | c4 a4 | (g<=d)(e<c) (d<f)(=B<d) | c4 a4 | %200
 (g<=d)(e<c) (d<f)(=B<d) | c6 f2 | _g2 f2 =e2 f2 | (.a2 .g2) z2 f2 | _g2 f2 =e2 f2 | (.B2 .A2) z4 | %206
 z4 f2 =e2 | z4 =B2 c2 | z4 f2 =e2 | z4 =B2 c2 | d2 c2 _B2 d2 | c2 B2 A2 c2 | B2 =e4 g2- | %213
 g2 =e4 B2- | B2 G4 =E2 | C2 B4 AG | A2 c2 c2 c2 | =E2 c2 c2 c2 | F2 c2 c2 c2 | C4 z2 B2 | %220
 A2 G2 F2 =E2 | F4 d4 | c2 B2 A2 G2 | F4 d4 | (c<G)(A<F) (G<B)(=E<G) | F4 d4 | %226
 (c<G)(A<F) (G<B)(=E<G) | F4[Q:1/4=80]"^Adagio" z2 f2 | e4 d4 | c4 z2 B2 | AB c4 =E2 | %231
"^segue la Consolatione" F6 |][K:F][M:3/8][K:treble][Q:1/4=44]"^Andante" BAG | FC z | c'ba | ag z | %236
 BAG | FC z | c/4d/4c/4A/4 B/4c/4B/4G/4 A/4B/4A/4F/4 | AG z | A=Bc | d/e/f z | e/4d/4e/4f/4 gc | %243
 =BG z | _e=Bc | f=Bc | g=Bc | _a=Bc | c'=Bc | =b/^f/g z | %250
 =f/4g/4f/4d/4 e/4f/4e/4c/4 d/4e/4d/4=B/4 | c/4d/4c/4A/4 =B/4c/4B/4G/4 A/4_B/4A/4F/4 | Gfd | e=Bc | %254
 Gfd | e=Bc | G>fe | dc=B | cag | dc=B | cag | f/4g/4f/4d/4 e/4f/4e/4c/4 d/4e/4d/4=B/4 | cC z :: %263
 _edc | BF z | d'c'b | ba z | BAG | FC z | a/4b/4a/4f/4 g/4a/4g/4e/4 f/4g/4f/4d/4 | fe z | f^cd | %272
 g^cd | a^cd | b^cd | =b^cd | ^cA z | a/4b/4a/4f/4 g/4a/4g/4e/4 f/4g/4f/4d/4 | %278
 e/4f/4e/4^c/4 d/4e/4d/4=B/4 c/A/ | gfe | dba | g/4a/4g/4e/4 f/4g/4f/4d/4 e/4f/4e/4^c/4 | dD z | %283
 BAG | FC z | c'ba | ag z | BAG | FC z | c/4d/4c/4A/4 B/4c/4B/4G/4 A/4B/4A/4F/4 | AG z | ABc | %292
 d_e z | d=ef | ec z | _AEF | BEF | cEF | _dEF | fEF | e/f/g z | %301
 b/4c'/4b/4g/4 a/4b/4a/4f/4 g/4a/4g/4e/4 | f/4g/4f/4d/4 e/4f/4e/4c/4 d/4_e/4d/4B/4 | cbg | aef | %305
 cBG | AEF | C>ba | gfe | fd'c' | GFE | Fdc | b/g/ a/4b/4a/4f/4 g/4a/4g/4e/4 | fF z :| %314
V:2
"_sostenuto" c8 | d8 | c8- | c8 | d8 | F8 | =E8 | d8 | c8 | B8 | A8 | _G8 | F8 | A8- | A4 =G4 | %15
 _G8- | G4 F4 | !fermata!d4 z2 z =e | f4 B4 | A4 A4- | A4 G4 |][M:2/2] z8 | z8 | z2 d2 c2 B2 | %24
 A2 A2 G2 F2 | =E4 F4- | F4 =E4 | F2 G2 A2 B2 | cBAG F2 A2 | =D4 =B4 | c4 G4- | G6 FE | F6 E=D | %33
 E4 c4- | c2 Bc _d2 B2 | c8- | c8 | c4 C4 | G8 | C2 a2 g2 f2 | =e8 | f2 a2 g2 f2 | =e8 | %43
 f2 g2 f2 _e2 | =d8 | e2 g2 f2 e2 | =d8 | e2 f2 e2 =d2 | c8 | =d2 e2 d2 c2 | =B8 | c8 | =d8 | e8- | %54
 e4 =d4 | c4 e4 | =A8 | B8 | c8 | d8- | d4 c4 | B2 _G2 E2 G2 | C4 =A4 | B4 z4 | z8 | z8 | z4 B4 | %67
 d6 B2 | =e6 c2 | f6 a2 | g2 (B2 A2) f2 | GA B4 AG | F4 z4 | z8 | z2 a2 g2 f2 | e2 e2 =d2 c2 | %76
 =B4 c4- | c4 =B4 | c2 e2- edcB | =A8 | B2 d2- dcBA | G8- | G2 c2- cBAG | F8- | F2 B2- BAGF | =E8 | %86
 F4 F4 | =E4 G4 | A8 |!p! =E8 | F8 |!f! c8 | d8 |!p! F8 | F8 |!f! =d8 | e8 |!p! G8 | G6!f! c2 | %99
 d6 B2 | =e6 c2 | f8 | g4 c4 | z8 | z2 a2 g2 f2 | =e2 =d2 c2 B2 | A2 G2 F4 | G2 G4 F=E | F8- | F8 | %110
 E8 | D8 || z4 F4 | F8 | =E8 | F16 |][K:Ab][M:3/4] A2 z2 f2 | (_gf) f2 d2 | (.e2 .e2 .e2) | %119
 !fermata!d6 | F2 z2 d2 | (ed) d2 F2 | (.c2 .c2 .c2) | !fermata!F6 | .G2 .B2 .E2 | %125
 (c<A)(f<c)(a<c) | .F2 .A2 .D2 | (B<G)(d<B)(g<B) | .=E2 .G2 .C2 | (A<F)(c<A)(f<A) | .D2 .F2 .B,2 | %131
 (G<E)(B<G)(e<G) | (.c2 .c2 .c2) | (._G2 .G2 .G2) | (.F2 .F2 .F2) | (.d2 .d2 .d2) | e6- | e6 | %138
 (d2 c2 B2 | A2 _G2 F2) | E6 | !fermata!E6 | A2 A2 A2 | A6 | B6 | A_g f2 e2 | !fermata!d6 | %147
!p! B2 B2 B2 | c2 c2 c2 | =d2 d2 d2 | c2 c2 z2 |!pp! F2 F2 F2 | (F2 =E2) z2 |][K:Ab][M:4/4]!f! c2 | %154
 d2 c2 B2 A2 | (.f2 .=e2) z2 c2 | d2 c2 B2 A2 | (.G2 .F2) z2 c2 | d2 c2 B2 A2 | (B2 A2) (d2 c2) | %160
 (B2 A2) (d2 c2) | B2 B2 d2 d2 | d2 d2 B2 B2 | G2 G2 E2 E2 | B2 B4 AG | A4 z4 | G4 z4 | A4 z4 | %168
 G4 z2 (3(GAB) | A2 G2 A2 B,2 | C4 d4 | E2 D2 C2 B,2 | C4 d4 | (c<G)(A<c) (G<B) D2 | C6 d2 | %175
 (c<G)(A<c) (G<B) D2 | C4 B4 | A4 F4 | =E6 :| G2 | A2 G2 F2 E2 | F2 F2 z2 d2 | e2 d2 c2 B2 | %183
 =A2 B2 z2 F2 | G2 F2 E2 D2 | E2 E2 z2 c2 | d2 c2 B2 A2 | G2 A2 z2 G2 | F2 E2 c2 =B2 | %189
 F2 E2 c2 =B2 | f2 e2 f2 e2 | f2 e2 z2 =B2 | c4 z4 | =B4 z4 | c4 z4 | =B4 z2 (3(Bc=d) | %196
 c2 A2 G2 F2 | E4 f4 | (e<=B)(c<e) (B<=d)(=D<F) | E4 f4 | (e<=B)(c<e) (B<=d)(=D<F) | E6 c2 | %202
 d2 c2 B2 A2 | (.f2 .=e2) z2 c2 | d2 c2 B2 A2 | (.G2 .F2) z4 | z4 A2 G2 | z4 A2 G2 | z4 A2 G2 | %209
 z4 A2 G2 | B2 A2 G2 B2 | A2 G2 F2 A2 | G2 G2 B2 B2 | B2 B2 G2 G2 | =E2 E2 C2 C2 | G2 G4 F=E | %216
 F4 z4 | =E4 z4 | F4 z4 | =E4 z2 EG | F2 D2 C2 C2 | C4 B4 | A2 G2 F2 =E2 | F4 B4 | %224
 (A<=E)(F<A) (B,<D)(G,<B,) | A,4 B4 | (A<=E)(F<A) (B,<D)(G,<B,) | A,4 z2 A2 | A2 A4 G2 | A4 z2 G2 | %230
 FG A4 G2 | F6 |][K:F][M:3/8] FFE | CC z | agf | fe z | FFE | CC z | %238
 A/4B/4A/4F/4 G/4A/4G/4E/4 F/4G/4F/4A/4 | FE z | FG>A | =B/c/d z | ccA | GD z | cd_e | z d_e | %246
 z d_e | z d_e | z d_e | d/c/=B z | d/4e/4d/4=B/4 c/4d/4c/4A/4 B/4c/4B/4G/4 | %251
 A/4_B/4A/4F/4 G/4A/4G/4E/4 F/4G/4F/4D/4 | Ed=B | cFE | Dd=B | cFE | D>dc | AGF | Efe | AGF | Efe | %261
 A/4B/4A/4F/4 G/4A/4G/4E/4 F/4G/4F/4D/4 | EE z :: BBA | FF z | bag | g^f z | FFE | CC z | %269
 f/4g/4f/4d/4 e/4f/4e/4^c/4 d/4e/4d/4A/4 | d^c z | z ef | z ef | z ef | z ef | z ef | eA z | %277
 f/4g/4f/4d/4 e/4f/4e/4^c/4 d/4e/4d/4=B/4 | ^c/4d/4c/4A/4 =B/4c/4B/4^G/4 A | ed^c | dgf | %281
 B A/4B/4A/4F/4 G/4A/4G/4E/4 | F/4G/4A/4F/4 D z | FFE | CC z | agf | fe z | FFE | CC z | %289
 A/4B/4A/4F/4 G/4A/4G/4E/4 F/4G/4F/4A/4 | FE z | FFA | Bc z | BBA | GE z | z G_A | z G_A | z G_A | %298
 z G_A | z G_A | Ge z | g/4a/4g/4e/4 f/4g/4f/4d/4 e/4f/4e/4c/4 | %302
 d/4e/4d/4B/4 c/4d/4c/4A/4 B/4c/4B/4G/4 | Afe | fBA | GGE | FB,A, | E>gf | dcB | Aba | DCB, | %311
 A,BA | g c/4d/4c/4A/4 B/4c/4B/4G/4 | AA z :| %314
V:3
"_sostenuto" A8 | [GB]8 | A8 | =A8 | B8 | G8 | G8 | =E8 | F8 | C8- | C8 | A,8- | A,8 | F8- | %14
 F4 =E4 | _E8- | E4 D4 | !fermata!G4 z2 z G | =D4 G4 | _D4 F4- | F4 =E4 |][M:2/2] z8 | z8 | z8 | %24
 z8 | z8 | z8 | z8 | z8 | z8 | z8 | z8 | z8 | z4 C4 | _D6 B,2 | =E6 C2 | F6 A2 | G2 (B,2 A,2) F2 | %38
 G,A, B,4 A,G, | F,6 C2- | C2 B2 A2 G2 | F6 C2- | C2 B2 A2 G2 | F4 A,4 | B,2 A2 G2 F2 | E6 B,2- | %46
 B,2 A2 G2 F2 | E4 G,4 | A,2 G2 F2 E2 | =D2 G2 F2 E2 | =D2 F2 E2 D2 | C2 E2 =D2 C2 | %52
 =B,2 =D2 C2 B,2 | C6 C2 | G4 G,4 | G,4 C4 | C2 (E2 D2 C2) | B,2 (D2 C2 B,2) | =A,2 (C2 B,2 A,2) | %59
 B,2 C2 D2 E2 | F4 F,4 | B,4 z4 | z4 F4- | F8- | (F8 | E6) E2 | _D2 C2 B,4 | z8 | z4 C4- | C8- | %70
 C4 C4 | B,C D4 CB, | A,2 B2 c2 d2 | F2 C2 F2 C2 | =D2 F2 E2 D2 | C6 G2 | F2 (=D2 C2) G2 | A4 G4- | %78
 G2 c2- cBAG | F8- | F2 B2- BAGF | E8- | E2 A2- AGFE | D8- | D2 G2- GF=E=D | C8- | C4 =D4 | %87
 =E4 C4 | C8 |!p! C8 | C8 |!f! F8 | F8 |!p! C8 | D8 |!f! G8 | G8 |!p! =D8 | C4!f! C4- | C4 B,4 | %100
 G8 | F2 F2 =E2 =D2 | C4 =E4 | F4 A4 | =D6 =B2 | G2 F2 =E4 | F2 _E2 _D4- | D4 C4 | C8- | C8 | A,8 | %111
 A,8 || z4 =D4 | C8 | C8 | C16 |][K:Ab][M:3/4] F2 z2 z2 | z2 z2 A2 | (.C2 .C2 .C2) | !fermata!A6 | %120
 B2 z2 z2 | z2 z2 D2 | (.=A2 .A2 .A2) | !fermata!B6 | B,2 E2 G2 | A2 E2 E2 | D2 F2 F2 | G2 D2 D2 | %128
 C2 C2 =E2 | C2 C2 C2 | B,2 B,2 D2 | B,2 E2 E2 | E2 E2 E2 | E2 E2 E2 | A2 A2 A2 | A2 A2 A2 | A6- | %137
 A6 | z6 | z6 | D6 | !fermata!C6 | E2 E2 E2 | F6- | F6 | FD A2 _G2 | !fermata!F6 |!p! =G2 G2 G2 | %148
 A2 A2 A2 | A2 A2 A2 | (A2 G2) z2 |!pp! =D2 D2 D2 | C2 C2 z2 |][K:Ab][M:4/4]!f! A2 | B2 A2 G2 F2 | %155
 (.F2 .C2) z2 A2 | B2 A2 G2 F2 | (.D2 .C2) z2 A2 | B2 A2 G2 F2 | E2 E2 z4 | E2 E2 z4 | %161
 G2 G2 B2 G2 | G2 E2 E2 E2 | E2 E2 G,2 B,2 | B,2 B,2 E2 E2 | E4 z4 | E4 z4 | E4 z4 | B,4 z2 E2 | %169
 E2 D2 C2 E2 | E4 z4 | A2 F2 E2 E2 | E4 z4 | E2 E2 E2 E2 | E4 z4 | E2 E2 E2 E2 | E4 G4 | C4 D4 | %178
 G,6 :| =E2 | F2 _E2 D2 C2 | C2 B,2 z4 | z8 | E2 D2 z2 D2 | E2 D2 C2 B,2 | B,2 A,2 z4 | z8 | %187
 D2 C2 z2 E2 | =D2 C2 z4 | =D2 C2 z4 | =D2 E2 z4 | B,2 B,2 z2 G,2 | G4 z4 | G4 z4 | G4 z4 | %195
 =D4 z2 G2 | G2 F2 E2 =D2 | C4 z2 C2 | G2 G2 G,2 G,2 | G,4 z4 | G2 G2 G,2 G,2 | G,6 A2 | %202
 B2 A2 G2 F2 | (.F2 .C2) z2 A2 | B2 A2 G2 F2 | (.D2 .C2) z4 | z4 =B,2 C2 | z4 F2 =E2 | z4 =B,2 C2 | %209
 z4 F2 =E2 | z8 | z4 z2 F2 | =E2 E2 G2 C2 | =E2 C2 C2 C2 | C2 C2 =E2 G,2 | G,2 G,2 C2 C2 | C4 z4 | %217
 C4 z4 | C4 z4 | C4 z2 C2 | B,2 A,2 G,2 F,2 | A,4 z2 F2 | C4 C4 | A,4 z2 F2 | C2 C2 C2 C2 | C4 z4 | %226
 C2 C2 C2 C2 | C4 z2 D2 | E4 B4 | E4 z2 D2 | C4 C4 | C6 |][K:F][M:3/8] DCB, | A,A, z | FDC | CC z | %236
 DCB, | A,A, z | FDC | CC z | FFE | D/C/=B, z | GGF | D=B, z | G2 z | F2 z | _E2 z | C2 z | _EDC | %249
 GG, z | z3 | z3 | G,3- | G,DC | =B, G,2- | G,DC | =B,G,G, | FED | C z z | FED | C z z | CC=B,/D/ | %262
 CG, z :: GF_E | DD z | G_ED | DD z | DCB, | A,A, z | DB,A, | A,A, z | A2 z | G2 z | F2 z | D2 z | %275
 FED | AA, z | z3 | z3 | BAG | F z z | DD^C/E/ | DA, z | DCB, | A,A, z | FDC | CC z | DCB, | %288
 A,A, z | FDC | CC z | _EDC | B,A, z | FGC | CG, z | C2 z | B,2 z | _A,2 z | F2 z | _AGF | CC z | %301
 z3 | z3 | C3- | CGF | E C2- | CG,C | CCC | BAG | F z z | B,A,G, | F, z z | DFC | CC z :| %314
V:4
 x8 | x8 | x8 | x8 | x8 | x8 | x8 | x8 | x8 | x8 | x8 | x8 | x8 | x8 | x8 | C8- | C4 x4 | x8 | x8 | %19
 x8 | x8 |][M:2/2] x8 | x8 | x8 | x8 | x8 | x8 | x8 | x8 | x8 | x8 | x8 | x8 | x8 | x8 | x8 | x8 | %37
 x8 | x8 | x8 | x8 | x8 | x8 | x8 | x8 | x8 | x8 | x8 | x8 | x8 | x8 | x8 | x8 | x8 | x8 | x8 | %56
 x8 | x8 | x8 | x8 | x8 | x8 | x8 | x8 | x8 | x8 | x8 | x8 | x8 | x8 | x8 | x8 | x8 | x8 | x8 | %75
 x8 | x8 | x8 | x8 | x8 | x8 | x8 | x8 | x8 | x8 | x8 | x8 | x8 | x8 | x8 | x8 | x8 | x8 | x8 | %94
 x8 | x8 | x8 | x8 | x8 | x8 | x8 | x8 | x8 | x8 | x8 | x8 | x8 | x8 | x8 | x8 | x8 | x8 || x8 | %113
 x8 | x8 | x16 |][K:Ab][M:3/4] x6 | x6 | x6 | x6 | x6 | x6 | x6 | x6 | x6 | x6 | x6 | x6 | x6 | %129
 x6 | x6 | x6 | x6 | x6 | x6 | x6 | x6 | x6 | x6 | x6 | x6 | x6 | x6 | x6 | x6 | x6 | x6 | x6 | %148
 x6 | x6 | x6 | x6 | x6 |][K:Ab][M:4/4] x2 | x8 | x8 | x8 | x8 | x8 | x8 | x8 | x8 | x8 | x8 | x8 | %165
 x8 | x8 | x8 | x8 | x8 | x8 | x8 | x8 | x8 | x8 | x8 | x8 | x8 | x6 :| x2 | x8 | x8 | x8 | x8 | %184
 x8 | x8 | x8 | x8 | x8 | x8 | x8 | x8 | x8 | x8 | x8 | x8 | x8 | x8 | x8 | x8 | x8 | x8 | x8 | %203
 x8 | x8 | x8 | x8 | x8 | x8 | x8 | x8 | x8 | x8 | x8 | x8 | x8 | x8 | x8 | x8 | x8 | x8 | x8 | %222
 x8 | x8 | x8 | x8 | x8 | x8 | x8 | x8 | x8 | x6 |][K:F][M:3/8] x3 | x3 | x3 | x3 | x3 | x3 | x3 | %239
 x3 | x3 | x3 | x3 | x3 | x3 | x3 | x3 | x3 | x3 | x3 | x3 | x3 | x3 | x3 | x3 | x3 | x3 | x3 | %258
 x3 | x3 | x3 | x3 | x3 :: x3 | x3 | x3 | x3 | x3 | x3 | x3 | x3 | x3 | x3 | x3 | x3 | x3 | x3 | %277
 x3 | x3 | x3 | x3 | x3 | x3 | x3 | x3 | x3 | x3 | x3 | x3 | x3 | x3 | x3 | x3 | x3 | x3 | x3 | %296
 x3 | x3 | x3 | x3 | x3 | x3 | x3 | x3 | x3 | x3 | x3 | x3 | x3 | x3 | x3 | x3 | x3 | x3 :| %314
V:5
"_staccato" .F,>.F,.F,>.F, .F,>.F,.F,>.F, | .F,>.F,.F,>.F, .F,>.F,.F,>.F, | %2
 .F,>.F,.F,>.F, .F,>.F,.F,>.F, | .E,>.E,.E,>.E, .E,>.E,.E,>.E, | .D,>.D,.D,>.D, .D,>.D,.D,>.D, | %5
 .G,>.G,.G,>.G, .G,>.G,.G,>.G, | .C,>.C,.C,>.C, .C,>.C,.C,>.C, | .C,>.C,.C,>.C, .C,>.C,.C,>.C, | %8
 .C,>.C,.C,>.C, .C,>.C,.C,>.C, | .C,>.C,.C,>.C, .C,>.C,.C,>.C, | .C,>.C,.C,>.C, .C,>.C,.C,>.C, | %11
 .C,>.C,.C,>.C, .C,>.C,.C,>.C, | .D,>.D,.D,>.D, .D,>.D,.D,>.D, | .D,>.D,.D,>.D, .D,>.D,.D,>.D, | %14
 .C,>.C,.C,>.C, .C,>.C,.C,>.C, | .C,>.C,.C,>.C, .C,>.C,.C,>.C, | %16
 .B,,>.B,,.B,,>.B,, .B,,>.B,,.B,,>.B,, | !fermata!B,,4 z2 z .B,, | %18
 .=B,,>.B,,.B,,>.B,, .C,>.C,.C,>.C, | D,8 | C,8 |][M:2/2] z8 | z8 | z8 | z8 | z8 | z8 | z4 F,4 | %28
 A,6 F,2 | =B,6 G,2 | C6 E2 | =D2 (F,2 E,2) C2 | =D,6 D,2 | C,4 z4 | z8 | z2 _D2 C2 B,2 | %36
 A,2 A,2 G,2 F,2 | =E,4 F,4- | F,4 =E,4 | F,8 | C,8 | F,8 | C,8 | F,8 | B,,8 | E,8 | B,,8 | E,8 | %48
 A,,8 | =D,8 | G,,8- | G,,8- | G,,8 | C,2 =D,2 E,2 F,2 | G,4 G,,4 | C,4 z4 | F,,8- | F,,8- | F,,8 | %59
 z8 | z4 F,4 | _G,6 E,2 | =A,6 F,2 | B,6 D2 | C2 (E,2 D,2) B,2 | C,6 C,2 | B,,4 z4 | z8 | %68
 z2 D2 C2 B,2 | A,2 A,2 G,2 F,2 | =E,4 F,4- | F,4 =E,4 | F,2 G,2 A,2 B,2 | CB,A,G, F,2 A,2 | %74
 G,6 =B,2 | C4 C,4 | =D,2 G,2 C,2 E,2 | F,4 G,4 | C,8 | F,8 | B,,8 | E,8 | A,,8 | D,8 | G,,8 | %85
 C,8 | F,,4 =B,,4 | C,2 D2 C2 B,2 | A,2 G,2 F,4 | z2!p! D2 C2 B,2 | A,2 G,2 F,4 | %91
 z2!f! _G,2 F,2 E,2 | D,2 C,2 B,,4 | z2!p! _G,2 F,2 E,2 | D,2 C,2 B,,4 | z2!f! A,2 G,2 F,2 | %96
 E,2 =D,2 C,4 | z2!p! A,2 G,2 F,2 | E,2 =D,2!f! C,4- | C,8- | C,8- | C,8- | C,8- | C,8- | C,8- | %105
 C,4 C,4 | D,6 B,,2 | =E,6 C,2 | F,2 _E,2 D,2 C,2 | B,,2 A,,2 G,,2 F,,2 | C,8 | D,8 || z4 =B,,4 | %113
 C,8 | C,8 | F,,16 |][K:Ab][M:3/4] D,2 z2 z2 | z2 z2 D,2 | (.D,2 .D,2 .D,2) | !fermata!D,6 | %120
 B,,2 z2 z2 | z2 z2 B,,2 | (.B,,2 .B,,2 .B,,2) | !fermata!B,,6 | E,2 E,2 E,2 | A,,2 A,,2 A,,2 | %126
 D,2 D,2 D,2 | G,2 G,2 G,2 | C,2 C,2 C,2 | F,2 F,2 F,2 | B,,2 B,,2 B,,2 | E,2 E,2 E,2 | %132
 A,2 A,2 A,2 | A,2 A,2 A,2 | A,2 A,2 A,2 | A,2 A,2 A,2 | (C<A,)(E<A,)(_G<A,) | %137
 (C<A,)(E<A,)(_G<A,) | D2 z2 z2 | z6 | B,,6 | !fermata!A,,6 | _G,2 G,2 G,2 | F,6 | B,,6 | %145
 F,_G, A,2 A,,2 | !fermata!D,6 |!p! D,2 D,2 D,2 | C,2 C,2 C,2 | =B,,2 B,,2 B,,2 | C,6 | %151
!pp! =B,,2 B,,2 B,,2 | C,6 |][K:Ab][M:4/4] z2 | z8 |!f! (.=B,,2 .C,2) z4 | z8 | (.=E,2 .F,2) z4 | %158
 z8 | G,2 A,2 z4 | G,2 A,2 z4 | B,2 B,2 G,2 G,2 | E,2 E,2 G,2 G,2 | B,2 B,2 D2 D2 | %164
 G,2 G,2 E,2 E,2 | A,4 z4 | B,4 z4 | C4 z4 | D4 z2 E,2 | A,4 E,4 | A,,4 z4 | E,4 z4 | A,,4 z2 D,2 | %173
 E,2 E,2 E,2 E,2 | A,,4 z2 D,2 | E,2 E,2 E,2 E,2 | A,,4 G,4 | F,4 D,4 | C,6 :| z2 | z8 | %181
 E,2 D,2 z4 | z8 | F,2 B,,2 z4 | z8 | D,2 C,2 z4 | z8 | E,2 A,,2 z4 | z4 ^F,2 G,2 | z4 ^F,2 G,2 | %190
 z8 | =D,2 E,2 z2 G,2 | C,4 z4 | =D,4 z4 | E,4 z4 | F,4 z2 G,,2 | C,4 G,,4 | C,4 z2 F,2 | %198
 G,2 G,2 G,,2 G,,2 | C,4 z2 F,2 | G,2 G,2 G,,2 G,,2 | C,2 C,,2 C,,2 z2 | z8 | (.=B,,2 .C,2) z4 | %204
 z8 | (.=E,2 .F,2) z2 C,2 | D,2 C,2 z4 | D,2 C,2 z4 | D,2 C,2 z4 | D,2 C,2 z4 | z8 | z4 z2 F,2 | %212
 G,2 G,2 =E,2 E,2 | C,2 C,2 =E,2 E,2 | G,2 G,2 B,2 B,2 | =E,2 E,2 C,2 C,2 | F,4 z4 | G,4 z4 | %218
 A,4 z4 | B,4 z2 C,2 | F,4 C,4 | F,,4 z2 B,2 | C4 C,4 | F,,4 z2 B,2 | C2 C2 C,2 C,2 | %225
"_La Consolatione" F,,4 z2 B,2 | C2 C2 C,2 C,2 | F,,4 z2 D,2 | C,4 B,,4 | A,,4 z2 B,,2 | C,4 C,,4 | %231
 F,,6 |][K:F][M:3/8] z3 | z3 | A,,B,,F,, | C,C,, z | z3 | z3 | A,B,F, | CC, z | z3 | z3 | C,E,F, | %243
 G,G,, z | C,2 z | D,2 z | _E,2 z | F,2 z | ^F,2 z | G,2 z | z3 | z3 | G,,3- | G,,3- | G,,3- | %255
 G,,3- | G,,=B,,C, | F,G,G,, | C, z z | F,G,G,, | C, z z | F,G,G,, | C,C,, z :: z3 | z3 | B,CG, | %266
 DD, z | z3 | z3 | F,G,D, | A,A,, z | D,2 z | E,2 z | F,2 z | G,2 z | ^G,2 z | A,2 z | z3 | z3 | %279
 G,A,A,, | D, z z | G,A,A,, | DD, z | z3 | z3 | A,B,F, | CC, z | z3 | z3 | A,B,F, | CC, z | z3 | %292
 z3 | B,G,F, | CC, z | F,2 z | G,2 z | _A,2 z | B,2 z | =B,2 z | CC, z | z3 | z3 | C,3- | C,3- | %305
 C,3- | C,3- | C,E,F, | B,CC, | F, z z | B,CC, | F, z z | B,CC, | F,F,, z :| %314

